src/distro-icons/ubuntu-kylin.svg

<svg width="512" height="512" fill="none" xmlns="http://www.w3.org/2000/svg">
<g clip-path="url(#a)">
<circle cx="256" cy="256" r="256" fill="#fff"/>
<path d="M256 512c141.385 0 256-114.615 256-256S397.385 0 256 0 0 114.615 0 256s114.615 256 256 256Z" fill="#DD4814"/>
<path fill-rule="evenodd" clip-rule="evenodd" d="M388.553 414.749a37.104 37.104 0 0 1-44.36 36.385 37.108 37.108 0 0 1-29.137-29.181 37.104 37.104 0 0 1 62.65-33.419 37.102 37.102 0 0 1 10.847 26.215Z" fill="#F9F9F9"/>
<path d="M386.906 106.765c5.065-19.855-6.925-40.056-26.78-45.12-19.854-5.066-40.056 6.924-45.12 26.779-5.065 19.855 6.925 40.056 26.78 45.121 19.855 5.064 40.056-6.926 45.12-26.78Zm-278.55 152.762c1.689-20.421-13.495-38.345-33.916-40.035-20.42-1.689-38.345 13.495-40.034 33.916-1.69 20.421 13.495 38.345 33.915 40.035 20.421 1.689 38.345-13.495 40.035-33.916Z" fill="#F9F9F9"/>
<path fill-rule="evenodd" clip-rule="evenodd" d="m242.903 232.615 13.379-18.214-4.835-19.225 8.657-25.634-20.574 20.8-2.923-.45 5.396-13.323-19.169 19.394-18.269 11.187-19.675 36.427 10.849 26.701 3.429 20.743 4.441 10.513-15.009 17.707h20.912l2.698-18.776 8.432-12.929 13.885 2.474 15.74-6.184 11.58-5.959 11.468 7.477-13.492 16.021-13.941 12.761 21.474.337.112-8.657 16.584-12.986 5.958 7.421-17.201 24.509 21.98.056-1.068-12.254 15.908-14.56-8.095-16.302-.955-19.788 16.246-9.387 9.05 1.742 12.311-4.328 3.598-24.903-19.225 5.902-11.693 17.146-19.9 10.512-27.995-11.243-20.068-14.728Z" fill="#F9F9F9"/>
<path fill-rule="evenodd" clip-rule="evenodd" d="M214.571 160.773a105.906 105.906 0 0 1 131.721 38.819 105.921 105.921 0 0 1 16.629 46.458l57.507-.787a163.022 163.022 0 0 0-47.614-103.434 49.31 49.31 0 0 1-23.609 5.15 49.31 49.31 0 0 1-23.221-6.688 49.303 49.303 0 0 1-24.393-40.005 164.387 164.387 0 0 0-43.96-6.015 162.34 162.34 0 0 0-72.516 16.865l29.456 49.637ZM194.67 342.739a105.853 105.853 0 0 1 1.517-171.454l-29.4-49.412a163.359 163.359 0 0 0-67.12 94.102 49.362 49.362 0 0 1 21.129 40.761 49.356 49.356 0 0 1-21.578 40.525 163.02 163.02 0 0 0 67.457 95.565l27.995-50.087Zm168.419-75.496a105.97 105.97 0 0 1-52.706 82.132 105.955 105.955 0 0 1-97.498 4.213l-28.108 50.143a163.019 163.019 0 0 0 117.263 11.243 49.477 49.477 0 0 1 24.09-42.35 49.465 49.465 0 0 1 48.708-1.16 162.403 162.403 0 0 0 45.815-104.727l-57.564.506Z" fill="#F9F9F9"/>
</g>
<defs>
<clipPath id="a">
<path fill="#fff" d="M0 0h512v512H0z"/>
</clipPath>
</defs>
</svg>

<svg width="512" height="512" viewBox="0 0 512 512" fill="none" xmlns="http://www.w3.org/2000/svg">
<g clip-path="url(#clip0_2_463)">
<circle cx="256" cy="256" r="256" fill="white"/>
<path d="M256 512C397.385 512 512 397.385 512 256C512 114.615 397.385 0 256 0C114.615 0 0 114.615 0 256C0 397.385 114.615 512 256 512Z" fill="#DD4814"/>
<path fill-rule="evenodd" clip-rule="evenodd" d="M388.553 414.749C388.553 422.09 386.376 429.265 382.296 435.367C378.217 441.47 372.419 446.225 365.637 449.032C358.854 451.838 351.391 452.57 344.193 451.134C336.994 449.697 330.383 446.158 325.197 440.964C320.01 435.77 316.481 429.153 315.056 421.953C313.631 414.752 314.374 407.29 317.19 400.512C320.007 393.734 324.771 387.943 330.88 383.873C336.989 379.803 344.167 377.637 351.508 377.648C361.338 377.663 370.76 381.578 377.706 388.534C384.652 395.491 388.553 404.919 388.553 414.749Z" fill="#F9F9F9"/>
<path d="M386.906 106.765C391.971 86.9098 379.981 66.7087 360.126 61.6441C340.272 56.5795 320.07 68.5692 315.006 88.424C309.941 108.279 321.931 128.48 341.786 133.545C361.641 138.609 381.842 126.619 386.906 106.765Z" fill="#F9F9F9"/>
<path d="M108.356 259.527C110.045 239.106 94.8609 221.182 74.4401 219.492C54.0193 217.803 36.0952 232.987 34.4056 253.408C32.7159 273.829 47.9005 291.753 68.3213 293.443C88.7421 295.132 106.666 279.948 108.356 259.527Z" fill="#F9F9F9"/>
<path fill-rule="evenodd" clip-rule="evenodd" d="M242.903 232.615L256.282 214.401L251.447 195.176L260.104 169.542L239.53 190.342L236.607 189.892L242.003 176.569L222.834 195.963L204.565 207.15L184.89 243.577L195.739 270.278L199.168 291.021L203.609 301.534L188.6 319.241H209.512L212.21 300.465L220.642 287.536L234.527 290.01L250.267 283.826L261.847 277.867L273.315 285.344L259.823 301.365L245.882 314.126L267.356 314.463L267.468 305.806L284.052 292.82L290.01 300.241L272.809 324.75L294.789 324.806L293.721 312.552L309.629 297.992L301.534 281.69L300.579 261.902L316.825 252.515L325.875 254.257L338.186 249.929L341.784 225.026L322.559 230.928L310.866 248.074L290.966 258.586L262.971 247.343L242.903 232.615Z" fill="#F9F9F9"/>
<path fill-rule="evenodd" clip-rule="evenodd" d="M214.571 160.773C229.808 153.991 246.43 150.904 263.086 151.762C279.741 152.62 295.959 157.399 310.418 165.711C324.877 174.022 337.168 185.631 346.292 199.592C355.415 213.553 361.113 229.471 362.921 246.05L420.428 245.263C417.505 206.183 400.602 169.463 372.814 141.829C365.494 145.477 357.38 147.247 349.205 146.979C341.03 146.71 333.05 144.412 325.984 140.291C318.919 136.17 312.99 130.355 308.731 123.372C304.473 116.388 302.019 108.455 301.591 100.286C287.277 96.3038 272.489 94.2804 257.631 94.2714C232.479 94.1995 207.654 99.9727 185.115 111.136L214.571 160.773Z" fill="#F9F9F9"/>
<path fill-rule="evenodd" clip-rule="evenodd" d="M194.67 342.739C181.206 332.805 170.289 319.821 162.814 304.852C155.339 289.883 151.518 273.355 151.666 256.624C151.815 239.893 155.927 223.436 163.666 208.601C171.405 193.767 182.55 180.979 196.187 171.285L166.787 121.873C133.694 144.012 109.825 177.476 99.6675 215.975C106.228 220.549 111.579 226.649 115.26 233.75C118.94 240.85 120.84 248.739 120.796 256.736C120.752 264.734 118.765 272.601 115.006 279.661C111.247 286.72 105.829 292.76 99.2178 297.261C109.107 336.364 133.141 370.413 166.675 392.826L194.67 342.739Z" fill="#F9F9F9"/>
<path fill-rule="evenodd" clip-rule="evenodd" d="M363.089 267.243C361.529 284.155 355.926 300.444 346.754 314.738C337.581 329.031 325.107 340.911 310.383 349.375C295.659 357.84 279.115 362.641 262.148 363.374C245.18 364.107 228.284 360.751 212.885 353.588L184.777 403.731C221.097 421.964 262.918 425.974 302.04 414.974C302.06 406.436 304.289 398.049 308.51 390.628C312.731 383.207 318.801 377.004 326.13 372.624C333.458 368.244 341.796 365.835 350.331 365.632C358.867 365.429 367.309 367.438 374.838 371.464C402.297 343.261 418.577 306.045 420.653 266.737L363.089 267.243Z" fill="#F9F9F9"/>
</g>
<defs>
<clipPath id="clip0_2_463">
<rect width="512" height="512" fill="white"/>
</clipPath>
</defs>
</svg>
